X:297
R:Visa
B:August Bondesons Visbok nr 297
Z:[[Profiles/Tommy Rådberg]]
T:Bröder, vi ha långt att gå
M:2/4
L:1/16
K:C
C2D2E2F2|G2A2G4|c2B2c2d2|e4G4|c2B2A2B2|c4E4|F2G2A2F2|D4C4|
E2G2c2E2|G2F2E2G2|E2G2c2E2|G2F2E4|c3Bc2d2|e4G4|c3BA2B2|c2E2F2G2|
A2F2D2B,2|C8|]

